X:90
T:Will Ye Gang to the Ewe Bughts, Marion
C:arr. Carlo Minasi
M:C
L:1/8
B:Chappell's One Hundred Scotch Melodies
B:Arranged for the Concertina by Carlo Minasi
Q:"Lento  "1/4=90
Z:Peter Dunk 2012
K:Dm
!p!D>E|[F2D2] ([GE]>[AF]) [f2A2] ([e^cG]>f)|[d4F4](D3 E)|\
[F2D2] ([GE]>[AF]) [f2A2] ([e^cG]>f)|[d6F6] zf|
([cA]A)(AB) [Bd][GE] [AF]>B|([G4E4C4] [A2F2]) zc|\
[d2A2F2] (DB) (AGF[EB,])|[F6A,6] zf|
([cA]A)(AB) [Bd][GE][AF]>B|([G4E4C4] [A2F2]) zc|\
[d2A2F2] (DB) (AGF[EB,])| D6||

